X: 40323
T: Tom Billy's
R: jig
M: 6/8
K: Dmixolydian
|:d3 AFA|AGE EDD|Add A3|AGE DF/G/A|
d3 AFA|AGE EDD|E3 cAG|1 BGE DFA:|2 BGE D2B||
|:c3 dB/c/d|edc BAG|Bc/d/B c2A|BGE GAB|
[1 c3 d3|ecA cde|dcA GEA|D3 DFA:|
[2 c3 dB/c/d|ecA cde|dcA GEA|D3 D3||
|:F3 AGG|AGE GED|D3 FED|D3 AFD|
F3 AGG|AGA cde|dcA GEA|1 D3 D3:|2 D3 DFA||

